src/scalable/mimetypes/application-x-compressed-tar.svg

<?xml version="1.0" encoding="UTF-8" standalone="no"?>
<svg
   xmlns:dc="http://purl.org/dc/elements/1.1/"
   xmlns:cc="http://creativecommons.org/ns#"
   xmlns:rdf="http://www.w3.org/1999/02/22-rdf-syntax-ns#"
   xmlns:svg="http://www.w3.org/2000/svg"
   xmlns="http://www.w3.org/2000/svg"
   xmlns:xlink="http://www.w3.org/1999/xlink"
   xmlns:sodipodi="http://sodipodi.sourceforge.net/DTD/sodipodi-0.dtd"
   xmlns:inkscape="http://www.inkscape.org/namespaces/inkscape"
   width="48px"
   height="48px"
   viewBox="0 0 48 48"
   version="1.1"
   id="svg39"
   sodipodi:docname="application-x-compressed-tar.svg"
   inkscape:version="0.92.2 2405546, 2018-03-11">
  <metadata
     id="metadata43">
    <rdf:RDF>
      <cc:Work
         rdf:about="">
        <dc:format>image/svg+xml</dc:format>
        <dc:type
           rdf:resource="http://purl.org/dc/dcmitype/StillImage" />
      </cc:Work>
    </rdf:RDF>
  </metadata>
  <sodipodi:namedview
     pagecolor="#ffffff"
     bordercolor="#666666"
     borderopacity="1"
     objecttolerance="10"
     gridtolerance="10"
     guidetolerance="10"
     inkscape:pageopacity="0"
     inkscape:pageshadow="2"
     inkscape:window-width="1278"
     inkscape:window-height="681"
     id="namedview41"
     showgrid="false"
     inkscape:zoom="4.9166667"
     inkscape:cx="24"
     inkscape:cy="24"
     inkscape:window-x="462"
     inkscape:window-y="344"
     inkscape:window-maximized="0"
     inkscape:current-layer="svg39" />
  <!-- Generator: Sketch 41.2 (35397) - http://www.bohemiancoding.com/sketch -->
  <title
     id="title2">application-x-compressed-tar</title>
  <desc
     id="desc4">Created with Sketch.</desc>
  <g
     id="g829">
    <rect
       rx="2"
       ry="1.9047618"
       y="4"
       x="6"
       height="40"
       width="36"
       id="rect834"
       style="opacity:1;fill:#448aff;fill-opacity:1;stroke:none;stroke-width:0.92582005;stroke-linecap:round;stroke-linejoin:round;stroke-miterlimit:4;stroke-dasharray:none;stroke-opacity:0.05882353;paint-order:markers stroke fill" />
    <path
       inkscape:connector-curvature="0"
       id="rect866"
       d="M 42,17.242188 A 40,40 0 0 1 23.494141,44 H 40 c 1.108,0 2,-0.849059 2,-1.904297 z"
       style="opacity:0.15;fill:url(#linearGradient877);fill-opacity:1;stroke:none;stroke-width:0.92582005;stroke-linecap:round;stroke-linejoin:round;stroke-miterlimit:4;stroke-dasharray:none;stroke-opacity:0.05882353;paint-order:markers stroke fill" />
  </g>
  <defs
     id="defs11">
    <linearGradient
       inkscape:collect="always"
       xlink:href="#linearGradient875"
       id="linearGradient877"
       x1="32.74707"
       y1="44"
       x2="32.74707"
       y2="17.242188"
       gradientUnits="userSpaceOnUse" />
    <linearGradient
       inkscape:collect="always"
       id="linearGradient875">
      <stop
         style="stop-color:#000000;stop-opacity:1;"
         offset="0"
         id="stop871" />
      <stop
         style="stop-color:#000000;stop-opacity:0;"
         offset="1"
         id="stop873" />
    </linearGradient>
  </defs>
  <g
     id="Page-1"
     stroke="none"
     stroke-width="1"
     fill="none"
     fill-rule="evenodd">
    <g
       id="application-x-compressed-tar">
      <path
         d="M22,29.9970301 C22,29.4463856 22.4499488,29 23.0068455,29 L34.9931545,29 C35.5492199,29 36,29.4530363 36,29.9970301 L36,36.0029699 C36,36.5536144 35.5500512,37 34.9931545,37 L23.0068455,37 C22.4507801,37 22,36.5469637 22,36.0029699 L22,29.9970301 Z M28.9436035,33.8398438 L28.9436035,34.9375 C28.9436035,35.0833341 28.9292807,35.1998694 28.9006348,35.2871094 C28.8719888,35.3743494 28.8192549,35.4531246 28.7424316,35.5234375 C28.6656083,35.5937504 28.567302,35.661458 28.4475098,35.7265625 C28.1011539,35.9140634 27.7678239,36.0507808 27.4475098,36.1367188 C27.1271957,36.2226567 26.7782408,36.265625 26.4006348,36.265625 C25.9605284,36.265625 25.5594907,36.1979173 25.1975098,36.0625 C24.8355288,35.9270827 24.5269381,35.73047 24.2717285,35.4726562 C24.0165189,35.2148425 23.8205573,34.9023456 23.6838379,34.5351562 C23.5471185,34.1679669 23.4787598,33.7578148 23.4787598,33.3046875 C23.4787598,32.8593728 23.5451654,32.4518248 23.6779785,32.0820312 C23.8107917,31.7122377 24.0061022,31.3984388 24.263916,31.140625 C24.5217298,30.8828112 24.8355288,30.6855476 25.2053223,30.5488281 C25.5751158,30.4121087 25.9943824,30.34375 26.4631348,30.34375 C26.8485534,30.34375 27.1896958,30.3951818 27.4865723,30.4980469 C27.7834488,30.600912 28.0243318,30.730468 28.2092285,30.8867188 C28.3941253,31.0429695 28.5334468,31.2083325 28.6271973,31.3828125 C28.7209477,31.5572925 28.7678223,31.7122389 28.7678223,31.8476562 C28.7678223,31.9934903 28.7137863,32.117838 28.6057129,32.2207031 C28.4976394,32.3235682 28.3680834,32.375 28.217041,32.375 C28.1337073,32.375 28.0536299,32.3554689 27.9768066,32.3164062 C27.8999833,32.2773436 27.8355309,32.2226566 27.7834473,32.1523438 C27.6402174,31.9283843 27.5191248,31.7591152 27.420166,31.6445312 C27.3212072,31.5299473 27.187745,31.4335941 27.0197754,31.3554688 C26.8518058,31.2773434 26.6376152,31.2382812 26.3771973,31.2382812 C26.1089668,31.2382812 25.8693858,31.2845047 25.6584473,31.3769531 C25.4475087,31.4694015 25.267172,31.6035147 25.1174316,31.7792969 C24.9676913,31.955079 24.8531091,32.1705716 24.7736816,32.4257812 C24.6942542,32.6809909 24.654541,32.9635401 24.654541,33.2734375 C24.654541,33.9453159 24.8088363,34.4622378 25.1174316,34.8242188 C25.4260269,35.1861997 25.8563612,35.3671875 26.4084473,35.3671875 C26.6766778,35.3671875 26.9286284,35.3320316 27.1643066,35.2617188 C27.3999849,35.1914059 27.6389148,35.0911465 27.8811035,34.9609375 L27.8811035,34.03125 L26.982666,34.03125 C26.7665191,34.03125 26.6031093,33.9986982 26.4924316,33.9335938 C26.381754,33.8684893 26.326416,33.7578133 26.326416,33.6015625 C26.326416,33.4739577 26.3726395,33.36849 26.4650879,33.2851562 C26.5575363,33.2018225 26.6831861,33.1601562 26.842041,33.1601562 L28.1584473,33.1601562 C28.3199064,33.1601562 28.4566238,33.174479 28.5686035,33.203125 C28.6805832,33.231771 28.7710771,33.2955724 28.8400879,33.3945312 C28.9090987,33.4934901 28.9436035,33.6419261 28.9436035,33.8398438 Z M29.8967285,34.8320312 L32.8381348,31.3125 L30.310791,31.3125 C30.1337068,31.3125 30.0002446,31.2734379 29.9104004,31.1953125 C29.8205562,31.1171871 29.7756348,31.0143236 29.7756348,30.8867188 C29.7756348,30.7539056 29.8205562,30.6464848 29.9104004,30.5644531 C30.0002446,30.4824215 30.1337068,30.4414062 30.310791,30.4414062 L33.5686035,30.4414062 C33.9904806,30.4414062 34.201416,30.6380189 34.201416,31.03125 C34.201416,31.2187509 34.1662601,31.368489 34.0959473,31.4804688 C34.0256344,31.5924485 33.8837087,31.7734362 33.670166,32.0234375 L30.920166,35.296875 L33.951416,35.296875 C34.1311044,35.296875 34.2652177,35.333984 34.3537598,35.4082031 C34.4423019,35.4824222 34.4865723,35.5859368 34.4865723,35.71875 C34.4865723,35.8567715 34.4423019,35.9661454 34.3537598,36.046875 C34.2652177,36.1276046 34.1311044,36.1679688 33.951416,36.1679688 L30.232666,36.1679688 C29.9800606,36.1679688 29.7899583,36.1113287 29.6623535,35.9980469 C29.5347487,35.8847651 29.4709473,35.7330739 29.4709473,35.5429688 C29.4709473,35.4778643 29.4813638,35.417969 29.5021973,35.3632812 C29.5230307,35.3085935 29.5510252,35.2571617 29.5861816,35.2089844 C29.6213381,35.1608071 29.6701657,35.0996097 29.732666,35.0253906 C29.7951663,34.9511715 29.8498533,34.886719 29.8967285,34.8320312 Z"
         id="Combined-Shape"
         fill="#FFFFFF" />
      <polygon
         id="Rectangle-327"
         fill="#FFFFFF"
         points="12 10 14.6666667 10 16 11 14.6666667 12 12 12" />
      <polygon
         id="polygon16"
         fill="#FFFFFF"
         transform="translate(16.000000, 13.000000) scale(-1, 1) translate(-16.000000, -13.000000) "
         points="14 12 16.6666667 12 18 13 16.6666667 14 14 14" />
      <polygon
         id="polygon18"
         fill="#FFFFFF"
         transform="translate(16.000000, 17.000000) scale(-1, 1) translate(-16.000000, -17.000000) "
         points="14 16 16.6666667 16 18 17 16.6666667 18 14 18" />
      <polygon
         id="polygon20"
         fill="#FFFFFF"
         points="12 14 14.6666667 14 16 15 14.6666667 16 12 16" />
      <polygon
         id="polygon22"
         fill="#FFFFFF"
         transform="translate(16.000000, 21.000000) scale(-1, 1) translate(-16.000000, -21.000000) "
         points="14 20 16.6666667 20 18 21 16.6666667 22 14 22" />
      <polygon
         id="polygon24"
         fill="#FFFFFF"
         points="12 18 14.6666667 18 16 19 14.6666667 20 12 20" />
      <polygon
         id="polygon26"
         fill="#FFFFFF"
         transform="translate(16.000000, 25.000000) scale(-1, 1) translate(-16.000000, -25.000000) "
         points="14 24 16.6666667 24 18 25 16.6666667 26 14 26" />
      <polygon
         id="polygon28"
         fill="#FFFFFF"
         points="12 22 14.6666667 22 16 23 14.6666667 24 12 24" />
      <polygon
         id="polygon30"
         fill="#FFFFFF"
         transform="translate(16.000000, 29.000000) scale(-1, 1) translate(-16.000000, -29.000000) "
         points="14 28 16.6666667 28 18 29 16.6666667 30 14 30" />
      <polygon
         id="polygon32"
         fill="#FFFFFF"
         points="12 26 14.6666667 26 16 27 14.6666667 28 12 28" />
      <path
         d="M15,37 C18,37 16,34.3807119 16,33 C16,31.6192881 16,31 15,31 C14,31 14,31.6192881 14,33 C14,34.3807119 12.0000001,37 15,37 Z M15,36.3652344 C15.5522847,36.3652344 16,35.9175191 16,35.3652344 C16,34.8129496 15.5522847,34.3652344 15,34.3652344 C14.4477153,34.3652344 14,34.8129496 14,35.3652344 C14,35.9175191 14.4477153,36.3652344 15,36.3652344 Z"
         id="path34"
         fill="#FFFFFF" />
    </g>
  </g>
</svg>

<svg xmlns="http://www.w3.org/2000/svg" xmlns:xlink="http://www.w3.org/1999/xlink" width="48" height="48"><g paint-order="markers stroke fill"><rect rx="2" ry="1.905" y="4" x="6" height="40" width="36" fill="#448aff"/><path d="M42 17.242A40 40 0 0 1 23.494 44H40c1.108 0 2-.85 2-1.904z" opacity=".15" fill="url(#a)"/></g><defs><linearGradient xlink:href="#b" id="a" x1="32.747" y1="44" x2="32.747" y2="17.242" gradientUnits="userSpaceOnUse"/><linearGradient id="b"><stop offset="0"/><stop offset="1" stop-opacity="0"/></linearGradient></defs><g fill="#FFF" fill-rule="evenodd"><path d="M22 29.997c0-.55.45-.997 1.007-.997h11.986c.556 0 1.007.453 1.007.997v6.006c0 .55-.45.997-1.007.997H23.007A1.006 1.006 0 0 1 22 36.003v-6.006zm6.944 3.843v1.097c0 .146-.015.263-.043.35a.554.554 0 0 1-.159.236 1.49 1.49 0 0 1-.294.204c-.347.187-.68.324-1 .41-.32.086-.67.129-1.047.129a3.41 3.41 0 0 1-1.203-.203 2.53 2.53 0 0 1-.926-.59 2.604 2.604 0 0 1-.588-.938 3.505 3.505 0 0 1-.205-1.23c0-.446.066-.853.199-1.223a2.51 2.51 0 0 1 .586-.941c.258-.258.572-.455.941-.592a3.61 3.61 0 0 1 1.258-.205c.386 0 .727.051 1.024.154.296.103.537.232.722.389.185.156.324.321.418.496.094.174.14.33.14.465 0 .145-.053.27-.161.373a.544.544 0 0 1-.63.095.546.546 0 0 1-.193-.164 4.619 4.619 0 0 0-.363-.507 1.172 1.172 0 0 0-.4-.29 1.528 1.528 0 0 0-.643-.117c-.268 0-.508.047-.719.139-.21.092-.39.227-.54.402-.15.176-.265.392-.344.647-.08.255-.12.538-.12.847 0 .672.155 1.19.463 1.551.309.362.74.543 1.291.543.269 0 .52-.035.756-.105.236-.07.475-.17.717-.301v-.93h-.898c-.216 0-.38-.032-.49-.097-.111-.066-.167-.176-.167-.332 0-.128.047-.234.14-.317a.542.542 0 0 1 .376-.125h1.316c.162 0 .299.014.41.043a.463.463 0 0 1 .272.192c.07.098.104.247.104.445zm.953.992l2.941-3.52h-2.527c-.177 0-.31-.039-.4-.117a.39.39 0 0 1-.135-.308c0-.133.045-.24.134-.323.09-.082.224-.123.4-.123h3.259c.421 0 .632.197.632.59a.837.837 0 0 1-.105.45c-.07.111-.212.292-.426.542l-2.75 3.274h3.031c.18 0 .314.037.403.111a.383.383 0 0 1 .133.31.422.422 0 0 1-.133.329c-.089.08-.223.121-.403.121h-3.718c-.253 0-.443-.057-.57-.17a.578.578 0 0 1-.192-.455.5.5 0 0 1 .031-.18.658.658 0 0 1 .084-.154c.035-.048.084-.11.147-.184l.164-.193zM12 10h2.667L16 11l-1.333 1H12zM18 12h-2.667L14 13l1.333 1H18zM18 16h-2.667L14 17l1.333 1H18zM12 14h2.667L16 15l-1.333 1H12zM18 20h-2.667L14 21l1.333 1H18zM12 18h2.667L16 19l-1.333 1H12zM18 24h-2.667L14 25l1.333 1H18zM12 22h2.667L16 23l-1.333 1H12zM18 28h-2.667L14 29l1.333 1H18zM12 26h2.667L16 27l-1.333 1H12zM15 37c3 0 1-2.62 1-4s0-2-1-2-1 .62-1 2-2 4 1 4zm0-.635a1 1 0 1 0 0-2 1 1 0 0 0 0 2z"/></g></svg>
